icons/watch.svg

<?xml version="1.0" standalone="no"?><!-- Generator: Gravit.io --><svg xmlns="http://www.w3.org/2000/svg" xmlns:xlink="http://www.w3.org/1999/xlink" width="96" height="96"><path d=" M 42 38 C 42 36.9 42.4 35.9 43.2 35.2 C 43.9 34.4 44.9 34 46 34 C 47.1 34 48.1 34.4 48.8 35.2 C 49.6 35.9 50 36.9 50 38 L 50 50 L 54 50 C 55.1 50 56.1 50.4 56.8 51.2 C 57.6 51.9 58 52.9 58 54 C 58 55.1 57.6 56.1 56.8 56.8 C 56.1 57.6 55.1 58 54 58 L 48 58 C 46.4 58 44.9 57.4 43.8 56.2 C 42.6 55.1 42 53.6 42 52 L 42 38 Z  M 30.39060624365 26.25670392767 L 35 10.7 C 36.2 6.7 39.9 4 44 4 L 52 4 C 56.1 4 59.8 6.7 61 10.7 L 65.60939375635 26.25670392767 C 66.3686876821901 26.864868654407363 67.10004151611281 27.513248279959743 67.8 28.2 C 73 33.5 76 40.6 76 48 C 76 55.4 73 62.5 67.8 67.8 C 67.10004151611281 68.48675172004026 66.3686876821901 69.13513134559264 65.60939375635 69.74329607233 L 65.60939375635 69.74329607233 L 61 85.3 C 59.8 89.3 56.1 92 52 92 L 44 92 C 39.9 92 36.2 89.3 35 85.3 L 30.39060624365 69.74329607233 C 29.6313123178099 69.13513134559263 28.899958483887183 68.48675172004025 28.2 67.8 C 23 62.5 20 55.4 20 48 C 20 40.6 23 33.5 28.2 28.2 C 28.899958483887183 27.513248279959743 29.6313123178099 26.864868654407363 30.39060624365 26.25670392767 Z  M 55.77099523263 21.11898433577 L 53.3 13 C 53.1 12.4 52.6 12 52 12 L 44 12 C 43.4 12 42.9 12.4 42.7 13 L 40.22900476737 21.11898433577 C 42.73478825180148 20.385267189479862 45.34813076642675 20 48 20 C 50.65186923357325 20 53.26521174819852 20.385267189479862 55.77099523263 21.11898433577 Z  M 28 48 C 28 53.3 30.1 58.4 33.9 62.1 C 37.6 65.9 42.7 68 48 68 C 53.3 68 58.4 65.9 62.1 62.1 C 65.9 58.4 68 53.3 68 48 C 68 42.7 65.9 37.6 62.1 33.9 C 58.4 30.1 53.3 28 48 28 C 42.7 28 37.6 30.1 33.9 33.9 C 30.1 37.6 28 42.7 28 48 L 28 48 Z  M 55.77099523263 74.88101566423 L 53.3 83 C 53.1 83.6 52.6 84 52 84 L 44 84 C 43.4 84 42.9 83.6 42.7 83 L 40.22900476737 74.88101566423 C 42.73478825180148 75.61473281052014 45.34813076642675 76 48 76 C 50.65186923357325 76 53.26521174819852 75.61473281052014 55.77099523263 74.88101566423 L 55.77099523263 74.88101566423 Z " fill-rule="evenodd" fill="#454545" stroke="none"/><mask id="_mask_Qag8IjozhyykPKMNyKUhgcW7b59YP1jI"><path d=" M 42 38 C 42 36.9 42.4 35.9 43.2 35.2 C 43.9 34.4 44.9 34 46 34 C 47.1 34 48.1 34.4 48.8 35.2 C 49.6 35.9 50 36.9 50 38 L 50 50 L 54 50 C 55.1 50 56.1 50.4 56.8 51.2 C 57.6 51.9 58 52.9 58 54 C 58 55.1 57.6 56.1 56.8 56.8 C 56.1 57.6 55.1 58 54 58 L 48 58 C 46.4 58 44.9 57.4 43.8 56.2 C 42.6 55.1 42 53.6 42 52 L 42 38 Z  M 30.39060624365 26.25670392767 L 35 10.7 C 36.2 6.7 39.9 4 44 4 L 52 4 C 56.1 4 59.8 6.7 61 10.7 L 65.60939375635 26.25670392767 C 66.3686876821901 26.864868654407363 67.10004151611281 27.513248279959743 67.8 28.2 C 73 33.5 76 40.6 76 48 C 76 55.4 73 62.5 67.8 67.8 C 67.10004151611281 68.48675172004026 66.3686876821901 69.13513134559264 65.60939375635 69.74329607233 L 65.60939375635 69.74329607233 L 61 85.3 C 59.8 89.3 56.1 92 52 92 L 44 92 C 39.9 92 36.2 89.3 35 85.3 L 30.39060624365 69.74329607233 C 29.6313123178099 69.13513134559263 28.899958483887183 68.48675172004025 28.2 67.8 C 23 62.5 20 55.4 20 48 C 20 40.6 23 33.5 28.2 28.2 C 28.899958483887183 27.513248279959743 29.6313123178099 26.864868654407363 30.39060624365 26.25670392767 Z  M 55.77099523263 21.11898433577 L 53.3 13 C 53.1 12.4 52.6 12 52 12 L 44 12 C 43.4 12 42.9 12.4 42.7 13 L 40.22900476737 21.11898433577 C 42.73478825180148 20.385267189479862 45.34813076642675 20 48 20 C 50.65186923357325 20 53.26521174819852 20.385267189479862 55.77099523263 21.11898433577 Z  M 28 48 C 28 53.3 30.1 58.4 33.9 62.1 C 37.6 65.9 42.7 68 48 68 C 53.3 68 58.4 65.9 62.1 62.1 C 65.9 58.4 68 53.3 68 48 C 68 42.7 65.9 37.6 62.1 33.9 C 58.4 30.1 53.3 28 48 28 C 42.7 28 37.6 30.1 33.9 33.9 C 30.1 37.6 28 42.7 28 48 L 28 48 Z  M 55.77099523263 74.88101566423 L 53.3 83 C 53.1 83.6 52.6 84 52 84 L 44 84 C 43.4 84 42.9 83.6 42.7 83 L 40.22900476737 74.88101566423 C 42.73478825180148 75.61473281052014 45.34813076642675 76 48 76 C 50.65186923357325 76 53.26521174819852 75.61473281052014 55.77099523263 74.88101566423 L 55.77099523263 74.88101566423 Z " fill-rule="evenodd" fill="white" stroke="none"/></mask><path d=" M 42 38 C 42 36.9 42.4 35.9 43.2 35.2 C 43.9 34.4 44.9 34 46 34 C 47.1 34 48.1 34.4 48.8 35.2 C 49.6 35.9 50 36.9 50 38 L 50 50 L 54 50 C 55.1 50 56.1 50.4 56.8 51.2 C 57.6 51.9 58 52.9 58 54 C 58 55.1 57.6 56.1 56.8 56.8 C 56.1 57.6 55.1 58 54 58 L 48 58 C 46.4 58 44.9 57.4 43.8 56.2 C 42.6 55.1 42 53.6 42 52 L 42 38 Z  M 30.39060624365 26.25670392767 L 35 10.7 C 36.2 6.7 39.9 4 44 4 L 52 4 C 56.1 4 59.8 6.7 61 10.7 L 65.60939375635 26.25670392767 C 66.3686876821901 26.864868654407363 67.10004151611281 27.513248279959743 67.8 28.2 C 73 33.5 76 40.6 76 48 C 76 55.4 73 62.5 67.8 67.8 C 67.10004151611281 68.48675172004026 66.3686876821901 69.13513134559264 65.60939375635 69.74329607233 L 65.60939375635 69.74329607233 L 61 85.3 C 59.8 89.3 56.1 92 52 92 L 44 92 C 39.9 92 36.2 89.3 35 85.3 L 30.39060624365 69.74329607233 C 29.6313123178099 69.13513134559263 28.899958483887183 68.48675172004025 28.2 67.8 C 23 62.5 20 55.4 20 48 C 20 40.6 23 33.5 28.2 28.2 C 28.899958483887183 27.513248279959743 29.6313123178099 26.864868654407363 30.39060624365 26.25670392767 Z  M 55.77099523263 21.11898433577 L 53.3 13 C 53.1 12.4 52.6 12 52 12 L 44 12 C 43.4 12 42.9 12.4 42.7 13 L 40.22900476737 21.11898433577 C 42.73478825180148 20.385267189479862 45.34813076642675 20 48 20 C 50.65186923357325 20 53.26521174819852 20.385267189479862 55.77099523263 21.11898433577 Z  M 28 48 C 28 53.3 30.1 58.4 33.9 62.1 C 37.6 65.9 42.7 68 48 68 C 53.3 68 58.4 65.9 62.1 62.1 C 65.9 58.4 68 53.3 68 48 C 68 42.7 65.9 37.6 62.1 33.9 C 58.4 30.1 53.3 28 48 28 C 42.7 28 37.6 30.1 33.9 33.9 C 30.1 37.6 28 42.7 28 48 L 28 48 Z  M 55.77099523263 74.88101566423 L 53.3 83 C 53.1 83.6 52.6 84 52 84 L 44 84 C 43.4 84 42.9 83.6 42.7 83 L 40.22900476737 74.88101566423 C 42.73478825180148 75.61473281052014 45.34813076642675 76 48 76 C 50.65186923357325 76 53.26521174819852 75.61473281052014 55.77099523263 74.88101566423 L 55.77099523263 74.88101566423 Z " fill-rule="evenodd" fill="none" stroke="none" stroke-width="16" mask="url(#_mask_Qag8IjozhyykPKMNyKUhgcW7b59YP1jI)"/></svg>

<svg xmlns="http://www.w3.org/2000/svg" width="96" height="96"><path d="M42 38c0-1.1.4-2.1 1.2-2.8.7-.8 1.7-1.2 2.8-1.2 1.1 0 2.1.4 2.8 1.2.8.7 1.2 1.7 1.2 2.8v12h4c1.1 0 2.1.4 2.8 1.2.8.7 1.2 1.7 1.2 2.8 0 1.1-.4 2.1-1.2 2.8-.7.8-1.7 1.2-2.8 1.2h-6c-1.6 0-3.1-.6-4.2-1.8-1.2-1.1-1.8-2.6-1.8-4.2V38zM30.39 26.257L35 10.7c1.2-4 4.9-6.7 9-6.7h8c4.1 0 7.8 2.7 9 6.7l4.61 15.557c.759.608 1.49 1.256 2.19 1.943C73 33.5 76 40.6 76 48s-3 14.5-8.2 19.8c-.7.687-1.431 1.335-2.19 1.943L61 85.3c-1.2 4-4.9 6.7-9 6.7h-8c-4.1 0-7.8-2.7-9-6.7l-4.61-15.557A29.137 29.137 0 0 1 28.2 67.8C23 62.5 20 55.4 20 48s3-14.5 8.2-19.8c.7-.687 1.431-1.335 2.19-1.943zm25.381-5.138L53.3 13c-.2-.6-.7-1-1.3-1h-8c-.6 0-1.1.4-1.3 1l-2.471 8.119A27.644 27.644 0 0 1 48 20c2.652 0 5.265.385 7.771 1.119zM28 48c0 5.3 2.1 10.4 5.9 14.1C37.6 65.9 42.7 68 48 68c5.3 0 10.4-2.1 14.1-5.9C65.9 58.4 68 53.3 68 48c0-5.3-2.1-10.4-5.9-14.1C58.4 30.1 53.3 28 48 28c-5.3 0-10.4 2.1-14.1 5.9C30.1 37.6 28 42.7 28 48zm27.771 26.881L53.3 83c-.2.6-.7 1-1.3 1h-8c-.6 0-1.1-.4-1.3-1l-2.471-8.119A27.644 27.644 0 0 0 48 76c2.652 0 5.265-.385 7.771-1.119z" fill-rule="evenodd" fill="#454545"/></svg>
